X:3
T:Reel du Cultivateur
R:reel
O:Qubec
Q:1/4=200
S:Dominique Renaudin <domren:free.fr> QueTrad 2002-11-26
M:4/4
K:Bm
A Bc | d2 A2 FA df | e2 c2 Ac eg | ff df ee ce |
de fd AA Bc | d2 A2 FA df | e2 c2 Ac eg | ff df ee ce |
df ec d :: B AG | Fd AF dA FA | Gd BG dB GB |
Ae cA ec Ac | df ed cB AG | Fd AF dA FA | Gd BG dB GB |
Ae cA ec Ac | df ec d :|
